!!!COM: Palestrina, Giovanni Perluigi da
!!!OPR: Missa Ut re mi fa sol la
!!!OMD: Sanctus
!!!OTL: H.coda
**kern	**kern	**kern	**kern	**kern	**kern
*Ibass	*Itenor	*Icalto	*Icalto	*Icant	*Icant
!Bassus	!Tenor	!Altus 2	!Altus 1	!Cantus 2	!Cantus 1
*clefF4	*clefGv2	*clefG2	*clefG2	*clefG2	*clefG2
*k[]	*k[]	*k[]	*k[]	*k[]	*k[]
*C:ion	*C:ion	*C:ion	*C:ion	*C:ion	*C:ion
*M3/2	*M3/2	*M3/2	*M3/2	*M3/2	*M3/2
=115	=115	=115	=115	=115	=115
2c	2c	1r	2e	1r	2g
2c	2r	.	2e	.	2g
2c	2r	2r	2e	2r	2g
=116	=116	=116	=116	=116	=116
2.F	1r	2c	1f	1r	1a
.	.	2c	.	.	.
4G	.	.	.	.	.
2A	2r	2c	2e	2r	2a
=117	=117	=117	=117	=117	=117
1.G	1r	1d	1g	1r	1.cc
.	2r	2d	2g	2r	.
=118	=118	=118	=118	=118	=118
1.C	2c	1.e	4g	1.g	1.cc
.	.	.	4f	.	.
.	2c	.	4e	.	.
.	.	.	4d	.	.
.	2c	.	4c	.	.
.	.	.	4B	.	.
=119	=119	=119	=119	=119	=119
1r	2.F	1f	1A	1.a	2cc
.	.	.	.	.	2cc
.	4G	.	.	.	.
2r	2A	2e	2c	.	2cc
=120	=120	=120	=120	=120	=120
2G	4G	1g	1B	1.b	1dd
.	4A	.	.	.	.
2G	4B	.	.	.	.
.	4c	.	.	.	.
2G	2d	2g	2G	.	2dd
=121	=121	=121	=121	=121	=121
2.C	1c	2e	2.g	1.cc	2.ee
.	.	1g	.	.	.
4D	.	.	4f	.	4ff
2E	2r	.	2e	.	2gg
=122	=122	=122	=122	=122	=122
1D	2A	1a	2A	1.dd	2.ff#
.	2A	.	1d	.	.
.	.	.	.	.	4ee
2D	2A	2d	.	.	2ff#
=123	=123	=123	=123	=123	=123
2.C	4c	2r	2G	1.ee	2gg
.	4d	.	.	.	.
.	4e	1g	1c	.	2g
4D	4f	.	.	.	.
4E	2g	.	.	.	4g
4F	.	.	.	.	4a
=124	=124	=124	=124	=124	=124
1G	4G	1g	1B	1.dd	4b
.	4A	.	.	.	4cc
.	4B	.	.	.	4dd
.	4c	.	.	.	4ee
2D	2d	2f	[2A	.	[2ff
=125	=125	=125	=125	=125	=125
2F	2A	2a	2A]	1.cc	2ff]
2.C	1c	2g	2e	.	2.ee
.	.	[2G	[2g	.	.
4D	.	.	.	.	4ff
=126	=126	=126	=126	=126	=126
4E	2.G	4G]	1.g]	1.b	2.gg
4F	.	4A	.	.	.
1G	.	4B	.	.	.
.	4A	4c	.	.	4ff
.	4B	[2d	.	.	4dd
.	4c	.	.	.	4ee
=127	=127	=127	=127	=127	=127
2D	2d	2d]	2.f	1.a	1ff
4F	2A	2c	.	.	.
4G	.	.	4e	.	.
4A	[2c	2r	4c	.	[2ee
4B	.	.	4d	.	.
=128	=128	=128	=128	=128	=128
2c	4c]	2.c	2.e	1.g	2ee]
.	4d	.	.	.	.
2.C	4e	.	.	.	2.gg
.	4f	4d	4d	.	.
.	2g	4e	2c	.	.
4D	.	4f	.	.	4ff
=129	=129	=129	=129	=129	=129
4E	2G	1g	1B	[1.g	2ee
4F	.	.	.	.	.
2G	2B	.	.	.	2.dd
2C	2c	[2e	2G	.	.
.	.	.	.	.	4cc
=130	=130	=130	=130	=130	=130
2C	2.G	2e]	2.g	1.g]	1cc
1G	.	1d	.	.	.
.	4A	.	4f	.	.
.	2B	.	2d	.	2b
=131	=131	=131	=131	=131	=131
[1.C	[1.G	[1.c	[1.e	[1.g	[1.cc
=132	=132	=132	=132	=132	=132
1.C]	1.G]	1.c]	1.e]	1.g]	1.cc]
==	==	==	==	==	==
*-	*-	*-	*-	*-	*-
!!!CDT: 1525/^1526/-1594/2/2
!!!OCY: Italia
!!!AGN: Mass (Tenor)
!!!AST: renaissance, vocal
!!!ASW: Antiphon
!!!PWK: Masses, Book 3
!!!RNB: Cadence finals: G
!!!YOR: Le Opere Complete, v. 6, p. 216
!!!YOO: Rome, Italy: Fratelli Scalera
!!!END: 1992//
!!!EED: John Miller
!!!YEC: Copyright 2000, John Miller
!!!YEN: United States of America
!!!YEM: Rights to all derivative electronic formats reserved.
!!!YEM: Refer to licensing agreement for further details.
!!!YEM: This file must be accompanied by the licensing agreement.
!!!YEM: A copy of the licensing agreement may be found at http://www.music-cog.ohio-state.edu/HumdrumDatabases/Palestrina/license.txt
!!!EMD: converted to Humdrum by Bret Aarden
